svgs/sharp-solid/binary.svg

<svg xmlns="http://www.w3.org/2000/svg" viewBox="0 0 384 512"><!--! Font Awesome Pro 6.6.0 by @fontawesome - https://fontawesome.com License - https://fontawesome.com/license (Commercial License) Copyright 2024 Fonticons, Inc. --><path d="M256 0l48 0 32 0 0 32 0 128 16 0 32 0 0 64-32 0-48 0-48 0-32 0 0-64 32 0 16 0 0-96-16 0-32 0 0-64 32 0zM32 288l48 0 32 0 0 32 0 128 16 0 32 0 0 64-32 0-48 0-48 0L0 512l0-64 32 0 16 0 0-96-16 0L0 352l0-64 32 0zM0 0L32 0 160 0l32 0 0 32 0 160 0 32-32 0L32 224 0 224l0-32L0 32 0 0zM64 64l0 96 64 0 0-96L64 64zM224 288l128 0 32 0 0 32 0 160 0 32-32 0-128 0-32 0 0-32 0-160 0-32 32 0zm32 160l64 0 0-96-64 0 0 96z"/></svg>

<svg xmlns="http://www.w3.org/2000/svg" viewBox="0 0 384 512"><!--! Font Awesome Pro 6.4.0 by @fontawesome - https://fontawesome.com License - https://fontawesome.com/license (Commercial License) Copyright 2023 Fonticons, Inc. --><path d="M256 0h48 32V32 160h16 32v64H352 304 256 224V160h32 16V64H256 224V0h32zM32 288H80h32v32V448h16 32v64H128 80 32 0V448H32 48V352H32 0V288H32zM0 0H32 160h32V32 192v32H160 32 0V192 32 0zM64 64v96h64V64H64zM224 288H352h32v32V480v32H352 224 192V480 320 288h32zm32 160h64V352H256v96z"/></svg>
